src/icons/tcl.svg

<svg width="16" height="16" viewBox="0 0 16 16" fill="none" xmlns="http://www.w3.org/2000/svg">
<path fill-rule="evenodd" clip-rule="evenodd" d="M12.3879 2.99C12.2092 2.658 11.9479 2.46833 11.6039 2.421C11.2599 2.37366 10.8739 2.433 10.4459 2.599C10.3814 2.62009 10.3179 2.64445 10.2559 2.672L10.0609 2.759C9.68356 2.943 9.2919 3.18333 8.8859 3.48C8.4799 3.77666 8.08823 4.10333 7.7109 4.46C7.33356 4.81666 6.9829 5.18833 6.6589 5.575C6.33423 5.96166 6.0579 6.34166 5.8299 6.715C5.84523 6.865 5.8519 7.02033 5.8499 7.181C5.84891 7.36077 5.83823 7.54037 5.8179 7.719C5.81424 7.74854 5.8119 7.77824 5.8109 7.808C5.80234 7.85773 5.79567 7.90776 5.7909 7.958L5.7869 8.016L5.7849 7.973V7.831C5.78728 7.82051 5.78795 7.8097 5.7869 7.799C5.78605 7.78283 5.78914 7.7667 5.7959 7.752C5.78523 7.74866 5.7819 7.742 5.7859 7.732L5.7909 7.717C5.77782 7.58106 5.7578 7.44588 5.7309 7.312C5.70556 7.18263 5.68389 7.05258 5.6659 6.922C5.5859 7.01533 5.5129 7.10533 5.4469 7.192L5.2489 7.453C5.2889 7.72233 5.29323 8.018 5.2619 8.34L5.2149 8.823L5.2179 8.766V8.574C5.21923 8.446 5.19823 8.29133 5.1549 8.11C5.11954 7.96668 5.0948 7.82095 5.0809 7.674C4.9683 7.82106 4.86605 7.97576 4.7749 8.137C4.70623 8.26233 4.67656 8.34333 4.6859 8.38C4.7019 8.46333 4.70856 8.563 4.7059 8.679C4.7039 8.79433 4.70023 8.92333 4.6949 9.066C4.66156 9.376 4.62156 9.675 4.5749 9.963L4.5039 10.396L4.4609 10.513C4.27253 10.9726 4.11289 11.4436 3.9829 11.923C3.90623 12.2277 3.84523 12.505 3.7999 12.755C3.75821 12.9572 3.74075 13.1637 3.7479 13.37L3.8559 13.359C3.8599 13.0603 3.90623 12.7357 3.9949 12.385C4.09445 12.0031 4.22213 11.6291 4.3769 11.266C4.61823 10.666 4.94356 10.0323 5.3529 9.365C5.7629 8.69833 6.2389 8.03033 6.7809 7.361C7.58652 6.4353 8.48675 5.59641 9.4669 4.858C9.90823 4.53 10.3399 4.251 10.7619 4.021C11.1839 3.79166 11.5762 3.62066 11.9389 3.508C11.5929 3.638 11.1919 3.87233 10.7359 4.211C10.2786 4.55033 9.8259 4.91866 9.3779 5.316C8.94806 5.69485 8.52954 6.08635 8.1229 6.49C7.7349 6.876 7.44056 7.188 7.2399 7.426C6.79275 7.92961 6.36898 8.4535 5.9699 8.996C5.5919 9.51266 5.25056 10.0327 4.9459 10.556C5.3079 10.0987 5.73456 9.82633 6.2259 9.739L6.9629 9.608L7.4909 9.292L8.7689 8.432C8.55823 8.412 8.30956 8.38533 8.0229 8.352C7.81707 8.32615 7.6102 8.30947 7.4029 8.302C7.21623 8.31133 7.0929 8.319 7.0329 8.325L6.9439 8.335L7.6839 8.221L9.1669 8.145C9.65164 7.77213 10.1236 7.38291 10.5819 6.978C11.0387 6.57986 11.4542 6.13662 11.8219 5.655C12.1666 5.19833 12.4046 4.741 12.5359 4.283C12.6672 3.82566 12.6172 3.394 12.3859 2.988L12.3879 2.99Z" fill="#FFCB6B"/>
</svg>

<svg xmlns="http://www.w3.org/2000/svg" width="16" height="16" fill="none"><path fill="#FFCB6B" fill-rule="evenodd" d="M12.388 2.99q-.268-.498-.784-.569t-1.158.178a2 2 0 0 0-.19.073l-.195.087q-.566.276-1.175.721t-1.175.98-1.052 1.115q-.487.58-.829 1.14.023.225.02.466a5 5 0 0 1-.032.538 1 1 0 0 0-.007.089 2 2 0 0 0-.02.15l-.004.058-.002-.043v-.142a.1.1 0 0 0 .002-.032.1.1 0 0 1 .009-.047q-.016-.005-.01-.02l.005-.015a4 4 0 0 0-.06-.405 7 7 0 0 1-.065-.39q-.12.14-.219.27l-.198.261q.06.404.013.887l-.047.483.003-.057v-.192q.002-.192-.063-.464a3 3 0 0 1-.074-.436 4 4 0 0 0-.306.463q-.103.188-.089.243.024.125.02.299-.003.173-.011.387-.05.465-.12.897l-.071.433-.043.117a12 12 0 0 0-.478 1.41q-.115.457-.183.832a2.6 2.6 0 0 0-.052.615l.108-.011q.006-.448.139-.974a8 8 0 0 1 .382-1.119q.362-.9.976-1.901.615-1 1.428-2.004a17.6 17.6 0 0 1 2.686-2.503q.662-.492 1.295-.837.633-.344 1.177-.513-.519.195-1.203.703-.686.509-1.358 1.105A29 29 0 0 0 8.123 6.49q-.582.579-.883.936a22 22 0 0 0-1.27 1.57q-.567.775-1.024 1.56.543-.686 1.28-.817l.737-.131.528-.316 1.278-.86q-.316-.03-.746-.08a7 7 0 0 0-.62-.05q-.28.014-.37.023l-.089.01.74-.114 1.483-.076a27 27 0 0 0 1.415-1.167 9 9 0 0 0 1.24-1.323q.517-.685.714-1.372.197-.686-.15-1.295z" clip-rule="evenodd"/></svg>
